SVG_Azure_Grouped/Application/Function App CORS.svg

<?xml version="1.0" encoding="UTF-8" standalone="no"?>
<!DOCTYPE svg PUBLIC "-//W3C//DTD SVG 1.1//EN" "http://www.w3.org/Graphics/SVG/1.1/DTD/svg11.dtd">
<!-- Generated by Microsoft Visio, SVG Export Function App CORS.svg Page-1 -->
<svg xmlns="http://www.w3.org/2000/svg" xmlns:xlink="http://www.w3.org/1999/xlink" xmlns:ev="http://www.w3.org/2001/xml-events"
		width="1.80266in" height="1.79124in" viewBox="0 0 129.791 128.969" xml:space="preserve" color-interpolation-filters="sRGB"
		class="st4">
	<style type="text/css">
	<![CDATA[
		.st1 {fill:url(#grad0-6);stroke:none;stroke-linecap:butt;stroke-width:34}
		.st2 {fill:#ffffff;fill-opacity:0.7;stroke:none;stroke-linecap:butt;stroke-width:34}
		.st3 {fill:#ffffff;stroke:none;stroke-linecap:butt;stroke-width:34}
		.st4 {fill:none;fill-rule:evenodd;font-size:12px;overflow:visible;stroke-linecap:square;stroke-miterlimit:3}
	]]>
	</style>

	<defs id="Patterns_And_Gradients">
		<linearGradient id="grad0-6" x1="0" y1="0" x2="1" y2="0" gradientTransform="rotate(90 0.5 0.5)">
			<stop offset="0" stop-color="#86d633" stop-opacity="1"/>
			<stop offset="0.125" stop-color="#81ce31" stop-opacity="1"/>
			<stop offset="1" stop-color="#5e9624" stop-opacity="1"/>
		</linearGradient>
	</defs>
	<g>
		<title>Page-1</title>
		<g id="group13594-1" transform="translate(35.6248,-38.276)">
			<title>Function App CORS.13594</title>
			<g id="group13595-2">
				<title>Sheet.13595</title>
				<g id="shape13596-3" transform="translate(0,-2.36012)">
					<title>Sheet.13596</title>
					<path d="M10.38 128.97 A30.6413 30.2877 0 0 1 29.04 74.64 A30.3349 29.9848 0 0 1 47.62 80.88 A30.6413 30.2877
								 0 1 1 10.38 128.97 Z" class="st1"/>
				</g>
				<g id="shape13597-7" transform="translate(3.90577,-19.1479)">
					<title>Sheet.13597</title>
					<path d="M38.88 94.54 A30.2736 29.9243 -180 0 0 34.16 92.67 A141.689 140.054 0 0 1 9.91 117.83 C9.85 117.89 9.82
								 117.94 9.76 118 A43.9941 43.4864 0 0 1 5.96 113 a0.636659 0.629311 -180 0 0 -1.13032 0.10769 A128.013
								 126.535 -180 0 0 0 127.85 a0.653682 0.646138 -180 0 0 0.524307 0.794211 A44.0486 43.5403 -180 0
								 0 18.23 127.51 a0.640063 0.632677 -180 0 0 0.238321 -1.09709 C17.31 125.46 15.2 123.65 12.9 121.35
								 A123.498 122.073 -180 0 0 38.88 94.54 Z" class="st2"/>
				</g>
				<g id="shape13598-9" transform="translate(4.49477,-15.746)">
					<title>Sheet.13598</title>
					<path d="M45.53 106.48 A51.8417 51.2434 0 0 1 40.63 110.86 A52.9039 52.2934 -180 0 0 5.57 94.37 A28.8165 28.4839
								 -180 0 0 0 99.95 C1.25 100 2.52 100.08 3.79 100.22 A47.1059 46.5623 0 0 1 34.19 115.52 C32.15 116.86
								 30.05 118.15 27.91 119.39 a0.636659 0.629311 -180 0 0 0.108947 1.14084 A73.3247 72.4785 0 0 1 45.18
								 128.89 a0.643468 0.636042 -180 0 0 1.00095 -0.380279 A72.368 71.5329 -180 0 0 46.63 106.84 a0.636659
								 0.629311 -180 0 0 -1.09628 -0.360087 Z" class="st3"/>
				</g>
				<g id="shape13599-11" transform="translate(3.59936,2.84217E-13)">
					<title>Sheet.13599</title>
					<path d="M37.59 116.2 a0.680918 0.67306 -180 0 0 -0.493666 -1.00959 C31.65 114.47 24.01 112.72 21.21 112.07 a0.54133
								 0.535083 -180 0 0 -0.619636 0.743732 C21.27 114.29 22.59 117.04 23.38 118.31 A76.4603 75.5779 0
								 0 1 0 119.48 A31.4448 31.0819 -180 0 0 4.56 124.77 A87.5491 86.5387 -180 0 0 25.63 122.8 A43.1566
								 42.6586 0 0 1 27.82 128.52 a0.653682 0.646138 -180 0 0 1.14054 0.212014 A127.209 125.741 -180 0
								 0 37.59 116.2 Z" class="st2"/>
				</g>
			</g>
		</g>
	</g>
</svg>

<?xml version="1.0" encoding="UTF-8" standalone="no"?>
<!-- Generated by Microsoft Visio, SVG Export Function App CORS.svg Page-1 -->

<svg
   xmlns:dc="http://purl.org/dc/elements/1.1/"
   xmlns:cc="http://creativecommons.org/ns#"
   xmlns:rdf="http://www.w3.org/1999/02/22-rdf-syntax-ns#"
   xmlns:svg="http://www.w3.org/2000/svg"
   xmlns="http://www.w3.org/2000/svg"
   xmlns:sodipodi="http://sodipodi.sourceforge.net/DTD/sodipodi-0.dtd"
   xmlns:inkscape="http://www.inkscape.org/namespaces/inkscape"
   width="0.85828543in"
   height="0.84685212in"
   viewBox="0 0 61.796304 60.973221"
   xml:space="preserve"
   class="st4"
   version="1.1"
   id="svg42"
   sodipodi:docname="Function App CORS.svg"
   style="font-size:12px;overflow:visible;color-interpolation-filters:sRGB;fill:none;fill-rule:evenodd;stroke-linecap:square;stroke-miterlimit:3"
   inkscape:version="0.92.5 (2060ec1f9f, 2020-04-08)"><metadata
   id="metadata46"><rdf:RDF><cc:Work
       rdf:about=""><dc:format>image/svg+xml</dc:format><dc:type
         rdf:resource="http://purl.org/dc/dcmitype/StillImage" /></cc:Work></rdf:RDF></metadata><sodipodi:namedview
   pagecolor="#ffffff"
   bordercolor="#666666"
   borderopacity="1"
   objecttolerance="10"
   gridtolerance="10"
   guidetolerance="10"
   inkscape:pageopacity="0"
   inkscape:pageshadow="2"
   inkscape:window-width="640"
   inkscape:window-height="480"
   id="namedview44"
   showgrid="false"
   inkscape:zoom="1.3724199"
   inkscape:cx="41.195451"
   inkscape:cy="40.656826"
   inkscape:window-x="0"
   inkscape:window-y="0"
   inkscape:window-maximized="0"
   inkscape:current-layer="svg42" />
	<style
   type="text/css"
   id="style2">
	<![CDATA[
		.st1 {fill:url(#grad0-6);stroke:none;stroke-linecap:butt;stroke-width:34}
		.st2 {fill:#ffffff;fill-opacity:0.7;stroke:none;stroke-linecap:butt;stroke-width:34}
		.st3 {fill:#ffffff;stroke:none;stroke-linecap:butt;stroke-width:34}
		.st4 {fill:none;fill-rule:evenodd;font-size:12px;overflow:visible;stroke-linecap:square;stroke-miterlimit:3}
	]]>
	</style>

	<defs
   id="Patterns_And_Gradients">
		<linearGradient
   id="grad0-6"
   x1="-1.6149552"
   y1="75.142114"
   x2="59.768482"
   y2="75.142114"
   gradientTransform="scale(1.0067278,0.99331714)"
   gradientUnits="userSpaceOnUse">
			<stop
   offset="0"
   stop-color="#86d633"
   stop-opacity="1"
   id="stop4" />
			<stop
   offset="0.125"
   stop-color="#81ce31"
   stop-opacity="1"
   id="stop6" />
			<stop
   offset="1"
   stop-color="#5e9624"
   stop-opacity="1"
   id="stop8" />
		</linearGradient>
	</defs>
	<g
   id="g40"
   transform="translate(-33.999096,-34.003829)">
		<title
   id="title12">Page-1</title>
		<g
   id="group13941-1"
   transform="translate(35.6248,-38.276)">
			<title
   id="title14">Function App CORS.13941</title>
			<g
   id="group13942-2">
				<title
   id="title16">Sheet.13942</title>
				<g
   id="shape13943-3"
   transform="translate(0,-2.36012)">
					<title
   id="title18">Sheet.13943</title>
					<path
   d="M 10.38,128.97 A 30.6413,30.2877 0 0 1 29.04,74.64 30.3349,29.9848 0 0 1 47.62,80.88 30.6413,30.2877 0 1 1 10.38,128.97 Z"
   class="st1"
   id="path20"
   inkscape:connector-curvature="0"
   style="fill:url(#grad0-6);stroke:none;stroke-width:34;stroke-linecap:butt" />
				</g>
				<g
   id="shape13944-7"
   transform="translate(3.90577,-19.1479)">
					<title
   id="title23">Sheet.13944</title>
					<path
   d="M 38.88,94.54 A 30.2736,29.9243 -180 0 0 34.16,92.67 141.689,140.054 0 0 1 9.91,117.83 C 9.85,117.89 9.82,117.94 9.76,118 A 43.9941,43.4864 0 0 1 5.96,113 0.636659,0.629311 -180 0 0 4.82968,113.10769 128.013,126.535 -180 0 0 0,127.85 0.653682,0.646138 -180 0 0 0.524307,128.64421 44.0486,43.5403 -180 0 0 18.23,127.51 0.640063,0.632677 -180 0 0 18.468321,126.41291 C 17.31,125.46 15.2,123.65 12.9,121.35 A 123.498,122.073 -180 0 0 38.88,94.54 Z"
   class="st2"
   id="path25"
   inkscape:connector-curvature="0"
   style="fill:#ffffff;fill-opacity:0.7;stroke:none;stroke-width:34;stroke-linecap:butt" />
				</g>
				<g
   id="shape13945-9"
   transform="translate(4.49477,-15.746)">
					<title
   id="title28">Sheet.13945</title>
					<path
   d="m 45.53,106.48 a 51.8417,51.2434 0 0 1 -4.9,4.38 A 52.9039,52.2934 -180 0 0 5.57,94.37 28.8165,28.4839 -180 0 0 0,99.95 c 1.25,0.05 2.52,0.13 3.79,0.27 a 47.1059,46.5623 0 0 1 30.4,15.3 c -2.04,1.34 -4.14,2.63 -6.28,3.87 a 0.636659,0.629311 -180 0 0 0.108947,1.14084 A 73.3247,72.4785 0 0 1 45.18,128.89 0.643468,0.636042 -180 0 0 46.18095,128.50972 72.368,71.5329 -180 0 0 46.63,106.84 0.636659,0.629311 -180 0 0 45.53372,106.47991 Z"
   class="st3"
   id="path30"
   inkscape:connector-curvature="0"
   style="fill:#ffffff;stroke:none;stroke-width:34;stroke-linecap:butt" />
				</g>
				<g
   id="shape13946-11"
   transform="translate(3.59936)">
					<title
   id="title33">Sheet.13946</title>
					<path
   d="m 37.59,116.2 a 0.680918,0.67306 -180 0 0 -0.493666,-1.00959 C 31.65,114.47 24.01,112.72 21.21,112.07 a 0.54133,0.535083 -180 0 0 -0.619636,0.74373 C 21.27,114.29 22.59,117.04 23.38,118.31 A 76.4603,75.5779 0 0 1 0,119.48 a 31.4448,31.0819 -180 0 0 4.56,5.29 87.5491,86.5387 -180 0 0 21.07,-1.97 43.1566,42.6586 0 0 1 2.19,5.72 0.653682,0.646138 -180 0 0 1.14054,0.21201 A 127.209,125.741 -180 0 0 37.59,116.2 Z"
   class="st2"
   id="path35"
   inkscape:connector-curvature="0"
   style="fill:#ffffff;fill-opacity:0.7;stroke:none;stroke-width:34;stroke-linecap:butt" />
				</g>
			</g>
		</g>
	</g>
</svg>
